X: 43340
T: Worn Torn Petticoat, The
R: slide
M: 12/8
K: Adorian
e2d|cBA B2G A2G E2D|EFG A2B c2d e2d|
cBA B2G A2G E2D|EFG A2G A3:|
z2A|Bcd e2f g2f e2d|e2a a2g a2g e2d|
Bcd e2f g2f e2d|e2a a2g a4 zA|
Bcd e2f g2f e2d|e2a a2g a2g e2d|
cBA B2G A2G E2D|EFG A2G A3|
c^cd e2f gfe =c^cd|e2a a2g a2g e2d|
cBA B2G A2G E2D|E2A A2G A3A3|

